images/bikes/bike-rack-perpendicular-right.svg

<?xml version="1.0" standalone="no"?><!DOCTYPE svg PUBLIC "-//W3C//DTD SVG 1.1//EN" "http://www.w3.org/Graphics/SVG/1.1/DTD/svg11.dtd"><svg width="144px" height="144px" version="1.1" xmlns="http://www.w3.org/2000/svg" xmlns:xlink="http://www.w3.org/1999/xlink" xml:space="preserve" style="fill-rule:evenodd;clip-rule:evenodd;stroke-linejoin:round;stroke-miterlimit:1.41421;"><g><g id="bike-rack-perpendicular-right" transform="matrix(0.5,0,0,0.5,0,-156)"><g transform="matrix(1.99969,9.86076e-32,1.97215e-31,1.99969,7.7645,-623.809)"><path d="M37.1553,570.728l1.905,2.396l-11.826,11.887l-2.666,-2.006l12.587,-12.277Z" style="fill:#e4e2dc;fill-rule:nonzero;"/></g><g transform="matrix(1.99969,9.86076e-32,1.97215e-31,1.99969,7.7645,-623.809)"><path d="M19.6553,588.229l1.905,2.396l-11.826,11.887l-2.666,-2.006l12.587,-12.277Z" style="fill:#e4e2dc;fill-rule:nonzero;"/></g><g transform="matrix(1.99969,9.86076e-32,1.97215e-31,1.99969,7.7645,-623.809)"><path d="M10.9736,570.728l-1.905,2.396l11.826,11.887l2.666,-2.006l-12.587,-12.277Z" style="fill:#e4e2dc;fill-rule:nonzero;"/></g><g transform="matrix(1.99969,9.86076e-32,1.97215e-31,1.99969,7.7645,-623.809)"><path d="M27.2236,586.979l-1.88,2.422l13.018,13.078l2.699,-1.973l-13.837,-13.527Z" style="fill:#e4e2dc;fill-rule:nonzero;"/></g><g transform="matrix(1.99969,9.86076e-32,1.97215e-31,1.99969,7.7645,-623.809)"><path d="M3.9453,588.602l0.348,-3.042l16.767,-0.043l0.467,3.304l-17.582,-0.219Z" style="fill:#e4e2dc;fill-rule:nonzero;"/></g><g transform="matrix(1.99969,9.86076e-32,1.97215e-31,1.99969,7.7645,-623.809)"><path d="M28.6934,588.602l0.348,-3.043l16.767,-0.043l0.467,3.305l-17.582,-0.219Z" style="fill:#e4e2dc;fill-rule:nonzero;"/></g><g transform="matrix(1.99969,9.86076e-32,1.97215e-31,1.99969,7.7645,-623.809)"><path d="M22.459,607.864l3.041,-0.361l0.043,-17.484l-3.303,-0.486l0.219,18.331Z" style="fill:#e4e2dc;fill-rule:nonzero;"/></g><g transform="matrix(1.99969,9.86076e-32,1.97215e-31,1.99969,7.7645,-623.809)"><path d="M22.459,582.365l3.041,-0.348l0.043,-16.767l-3.303,-0.467l0.219,17.582Z" style="fill:#e4e2dc;fill-rule:nonzero;"/></g><g transform="matrix(1.99969,9.86076e-32,1.97215e-31,1.99969,7.7645,-623.809)"><path d="M24.6289,607.37c-11.046,0 -20,-8.954 -20,-20c0,-11.046 8.954,-20 20,-20c11.046,0 20,8.954 20,20c0,11.046 -8.954,20 -20,20M24.6289,562.742c-13.603,0 -24.629,11.026 -24.629,24.629c0,13.602 11.026,24.628 24.629,24.628c13.602,0 24.628,-11.026 24.628,-24.628c0,-13.603 -11.026,-24.629 -24.628,-24.629" style="fill:#373837;fill-rule:nonzero;"/></g><g transform="matrix(1.99969,9.86076e-32,1.97215e-31,1.99969,7.7645,-623.809)"><path d="M58.7139,584.538l32.294,-38.626l2.595,2.218l-32.081,38.266l-2.808,-1.858Z" style="fill:#ecdbb1;fill-rule:nonzero;"/></g><g transform="matrix(1.99969,9.86076e-32,1.97215e-31,1.99969,7.7645,-623.809)"><path d="M47.5146,555.21l42.622,-17.507l1.261,3.172l-42.297,17.301l-1.586,-2.966Z" style="fill:#ecdbb1;fill-rule:nonzero;"/></g><g transform="matrix(1.99969,9.86076e-32,1.97215e-31,1.99969,7.7645,-623.809)"><path d="M87.0361,536.727l8.768,-3.857l1.273,3.167l-8.721,3.763l-1.32,-3.073Z" style="fill:#ecdbb1;fill-rule:nonzero;"/></g><g transform="matrix(1.99969,9.86076e-32,1.97215e-31,1.99969,7.7645,-623.809)"><path d="M56.6025,586.017l-15.789,-46.584l3.246,-1.058l15.594,46.221l-3.051,1.421Z" style="fill:#ecdbb1;fill-rule:nonzero;"/></g><g transform="matrix(1.99969,9.86076e-32,1.97215e-31,1.99969,7.7645,-623.809)"><path d="M33.4463,537.741l0.579,4.002l15.626,-0.001l4.628,-4.001l-20.833,0Z" style="fill:#c09e3e;fill-rule:nonzero;"/></g><g transform="matrix(1.99969,9.86076e-32,1.97215e-31,1.99969,7.7645,-623.809)"><path d="M60.4189,579.514l0.521,1.564l5.254,0.076l-1.353,1.763l4.147,2.67l-1.563,1.404l0.595,5.416l-2.124,-0.188l-2.869,3.576l-1.602,-1.751l-4.769,1.23l-0.372,-1.938l-3.614,-2.422l1.862,-1.117l-1.378,-3.465l1.9,-0.931l0.186,-3.317l1.826,0.224l3.353,-2.794Z" style="fill:#373837;fill-rule:nonzero;"/></g><g transform="matrix(1.99969,9.86076e-32,1.97215e-31,1.99969,7.7645,-623.809)"><clipPath id="tag1"><rect x="86.8197" y="532.87" width="9.726" height="5.706"/></clipPath><g clip-path="url(#tag1)"><g opacity="0.5"><path d="M95.8037,532.87l0.742,3.456l-5.25,2.25l-4.476,-2.01l8.984,-3.696Z" style="fill:#171817;fill-rule:nonzero;"/></g></g></g><g transform="matrix(1.99969,9.86076e-32,1.97215e-31,1.99969,7.7645,-623.809)"><path d="M99.1904,537.41l-3.331,0.083l-1.418,-5.417l6.333,-0.083l-1.584,5.417Z" style="fill:#cead80;fill-rule:nonzero;"/></g><g transform="matrix(1.99969,9.86076e-32,1.97215e-31,1.99969,7.7645,-623.809)"><path d="M124.155,570.728l1.905,2.396l-11.826,11.887l-2.666,-2.006l12.587,-12.277Z" style="fill:#e4e2dc;fill-rule:nonzero;"/></g><g transform="matrix(1.99969,9.86076e-32,1.97215e-31,1.99969,7.7645,-623.809)"><path d="M106.655,588.229l1.905,2.396l-11.826,11.887l-2.666,-2.006l12.587,-12.277Z" style="fill:#e4e2dc;fill-rule:nonzero;"/></g><g transform="matrix(1.99969,9.86076e-32,1.97215e-31,1.99969,7.7645,-623.809)"><path d="M97.9736,570.728l-1.905,2.396l11.826,11.887l2.666,-2.006l-12.587,-12.277Z" style="fill:#e4e2dc;fill-rule:nonzero;"/></g><g transform="matrix(1.99969,9.86076e-32,1.97215e-31,1.99969,7.7645,-623.809)"><path d="M114.224,586.979l-1.88,2.422l13.018,13.078l2.699,-1.973l-13.837,-13.527Z" style="fill:#e4e2dc;fill-rule:nonzero;"/></g><g transform="matrix(1.99969,9.86076e-32,1.97215e-31,1.99969,7.7645,-623.809)"><path d="M90.9453,588.602l0.348,-3.042l16.767,-0.043l0.467,3.304l-17.582,-0.219Z" style="fill:#e4e2dc;fill-rule:nonzero;"/></g><g transform="matrix(1.99969,9.86076e-32,1.97215e-31,1.99969,7.7645,-623.809)"><path d="M115.693,588.602l0.348,-3.043l16.767,-0.043l0.467,3.305l-17.582,-0.219Z" style="fill:#e4e2dc;fill-rule:nonzero;"/></g><g transform="matrix(1.99969,9.86076e-32,1.97215e-31,1.99969,7.7645,-623.809)"><path d="M109.459,607.864l3.041,-0.361l0.043,-17.484l-3.303,-0.486l0.219,18.331Z" style="fill:#e4e2dc;fill-rule:nonzero;"/></g><g transform="matrix(1.99969,9.86076e-32,1.97215e-31,1.99969,7.7645,-623.809)"><path d="M109.459,582.365l3.041,-0.348l0.043,-16.767l-3.303,-0.467l0.219,17.582Z" style="fill:#e4e2dc;fill-rule:nonzero;"/></g><g transform="matrix(1.99969,9.86076e-32,1.97215e-31,1.99969,7.7645,-623.809)"><path d="M23.1064,579.327l-5,6.75l5.375,8l8.125,-7l-8.5,-7.75Z" style="fill:#373837;fill-rule:nonzero;"/></g><g transform="matrix(1.99969,9.86076e-32,1.97215e-31,1.99969,7.7645,-623.809)"><path d="M112.358,579.701l-8.917,6.208l5.375,8l8.125,-7l-4.583,-7.208Z" style="fill:#373837;fill-rule:nonzero;"/></g><g transform="matrix(1.99969,9.86076e-32,1.97215e-31,1.99969,7.7645,-623.809)"><path d="M23.9102,585.615l24.456,-27.629l2.528,2.293l-24.305,27.357l-2.679,-2.021Z" style="fill:#ecdbb1;fill-rule:nonzero;"/></g><g transform="matrix(1.99969,9.86076e-32,1.97215e-31,1.99969,7.7645,-623.809)"><path d="M111.629,607.37c-11.046,0 -20,-8.954 -20,-20c0,-11.046 8.954,-20 20,-20c11.046,0 20,8.954 20,20c0,11.046 -8.954,20 -20,20M111.629,562.742c-13.603,0 -24.629,11.026 -24.629,24.629c0,13.602 11.026,24.628 24.629,24.628c13.602,0 24.628,-11.026 24.628,-24.628c0,-13.603 -11.026,-24.629 -24.628,-24.629" style="fill:#373837;fill-rule:nonzero;"/></g><g transform="matrix(1.99969,9.86076e-32,1.97215e-31,1.99969,7.7645,-623.809)"><path d="M107.907,586.932l-21.088,-50.365l3.166,-1.281l20.848,49.974l-2.926,1.672Z" style="fill:#ecdbb1;fill-rule:nonzero;"/></g><g transform="matrix(1.99969,9.86076e-32,1.97215e-31,1.99969,7.7645,-623.809)"><path d="M62.8662,588.464l0.485,3.01l10.054,-0.879l-0.02,-3.315l-10.519,1.184Z" style="fill:#e4e2dc;fill-rule:nonzero;"/></g><g transform="matrix(1.99969,9.86076e-32,1.97215e-31,1.99969,7.7645,-623.809)"><path d="M73.4863,585.076l-0.667,5.666l11.171,-0.5l1.333,-6.333l-11.837,1.167Z" style="fill:#373837;fill-rule:nonzero;"/></g><g transform="matrix(1.99969,9.86076e-32,1.97215e-31,1.99969,7.7645,-623.809)"><clipPath id="tag2"><rect x="41.6094" y="541.66" width="5.749" height="16.916"/></clipPath><g clip-path="url(#tag2)"><g opacity="0.5"><path d="M45.2344,541.743l2.124,16.833l-5.749,-16.916l3.625,0.083Z" style="fill:#171817;fill-rule:nonzero;"/></g></g></g><g transform="matrix(1.99969,9.86076e-32,1.97215e-31,1.99969,7.7645,-623.809)"><path d="M107.863,612l-0.001,-64.424l-5.854,0.022l-64.147,64.402l7.456,0l47.891,-47.893l9.235,-9.365l0.252,57.257l5.168,0.001Z" style="fill:#7c705b;fill-rule:nonzero;"/></g></g></g></svg>

<?xml version="1.0" encoding="UTF-8" standalone="no"?>
<!DOCTYPE svg PUBLIC "-//W3C//DTD SVG 1.1//EN" "http://www.w3.org/Graphics/SVG/1.1/DTD/svg11.dtd">
<svg width="100%" height="100%" viewBox="0 0 180 120" version="1.1" xmlns="http://www.w3.org/2000/svg" xmlns:xlink="http://www.w3.org/1999/xlink" xml:space="preserve" xmlns:serif="http://www.serif.com/" style="fill-rule:evenodd;clip-rule:evenodd;stroke-linejoin:round;stroke-miterlimit:2;">
    <g id="bike-rack-perpendicular-right" transform="matrix(0.635,0,0,0.635,-1.44,-261)">
        <g transform="matrix(1.99969,9.86076e-32,1.97215e-31,1.99969,7.7645,-623.809)">
            <path d="M37.155,570.728L39.06,573.124L27.234,585.012L24.568,583.006L37.155,570.728Z" style="fill:rgb(228,226,220);fill-rule:nonzero;"/>
        </g>
        <g transform="matrix(1.99969,9.86076e-32,1.97215e-31,1.99969,7.7645,-623.809)">
            <path d="M19.655,588.229L21.56,590.625L9.734,602.512L7.068,600.506L19.655,588.229Z" style="fill:rgb(228,226,220);fill-rule:nonzero;"/>
        </g>
        <g transform="matrix(1.99969,9.86076e-32,1.97215e-31,1.99969,7.7645,-623.809)">
            <path d="M10.974,570.728L9.069,573.124L20.895,585.012L23.561,583.006L10.974,570.728Z" style="fill:rgb(228,226,220);fill-rule:nonzero;"/>
        </g>
        <g transform="matrix(1.99969,9.86076e-32,1.97215e-31,1.99969,7.7645,-623.809)">
            <path d="M27.224,586.979L25.344,589.401L38.362,602.479L41.061,600.506L27.224,586.979Z" style="fill:rgb(228,226,220);fill-rule:nonzero;"/>
        </g>
        <g transform="matrix(1.99969,9.86076e-32,1.97215e-31,1.99969,7.7645,-623.809)">
            <path d="M3.945,588.602L4.293,585.56L21.06,585.517L21.527,588.821L3.945,588.602Z" style="fill:rgb(228,226,220);fill-rule:nonzero;"/>
        </g>
        <g transform="matrix(1.99969,9.86076e-32,1.97215e-31,1.99969,7.7645,-623.809)">
            <path d="M28.693,588.602L29.041,585.559L45.808,585.516L46.275,588.821L28.693,588.602Z" style="fill:rgb(228,226,220);fill-rule:nonzero;"/>
        </g>
        <g transform="matrix(1.99969,9.86076e-32,1.97215e-31,1.99969,7.7645,-623.809)">
            <path d="M22.459,607.864L25.5,607.503L25.543,590.019L22.24,589.533L22.459,607.864Z" style="fill:rgb(228,226,220);fill-rule:nonzero;"/>
        </g>
        <g transform="matrix(1.99969,9.86076e-32,1.97215e-31,1.99969,7.7645,-623.809)">
            <path d="M22.459,582.365L25.5,582.017L25.543,565.25L22.24,564.783L22.459,582.365Z" style="fill:rgb(228,226,220);fill-rule:nonzero;"/>
        </g>
        <g transform="matrix(1.99969,9.86076e-32,1.97215e-31,1.99969,7.7645,-623.809)">
            <path d="M24.629,607.37C13.583,607.37 4.629,598.416 4.629,587.37C4.629,576.324 13.583,567.37 24.629,567.37C35.675,567.37 44.629,576.324 44.629,587.37C44.629,598.416 35.675,607.37 24.629,607.37M24.629,562.742C11.026,562.742 -0,573.768 -0,587.371C-0,600.973 11.026,611.999 24.629,611.999C38.231,611.999 49.257,600.973 49.257,587.371C49.257,573.768 38.231,562.742 24.629,562.742" style="fill:rgb(55,56,55);fill-rule:nonzero;"/>
        </g>
        <g transform="matrix(1.99969,9.86076e-32,1.97215e-31,1.99969,7.7645,-623.809)">
            <path d="M58.714,584.538L91.008,545.912L93.603,548.13L61.522,586.396L58.714,584.538Z" style="fill:rgb(236,219,177);fill-rule:nonzero;"/>
        </g>
        <g transform="matrix(1.99969,9.86076e-32,1.97215e-31,1.99969,7.7645,-623.809)">
            <path d="M47.515,555.21L90.137,537.703L91.398,540.875L49.101,558.176L47.515,555.21Z" style="fill:rgb(236,219,177);fill-rule:nonzero;"/>
        </g>
        <g transform="matrix(1.99969,9.86076e-32,1.97215e-31,1.99969,7.7645,-623.809)">
            <path d="M87.036,536.728L95.804,532.871L97.077,536.037L88.356,539.8L87.036,536.728Z" style="fill:rgb(236,219,177);fill-rule:nonzero;"/>
        </g>
        <g transform="matrix(1.99969,9.86076e-32,1.97215e-31,1.99969,7.7645,-623.809)">
            <path d="M56.603,586.017L40.814,539.433L44.06,538.375L59.654,584.596L56.603,586.017Z" style="fill:rgb(236,219,177);fill-rule:nonzero;"/>
        </g>
        <g transform="matrix(1.99969,9.86076e-32,1.97215e-31,1.99969,7.7645,-623.809)">
            <path d="M33.446,537.741L34.025,541.743L49.651,541.742L54.279,537.741L33.446,537.741Z" style="fill:rgb(192,158,62);fill-rule:nonzero;"/>
        </g>
        <g transform="matrix(1.99969,9.86076e-32,1.97215e-31,1.99969,7.7645,-623.809)">
            <path d="M60.419,579.514L60.94,581.078L66.194,581.154L64.841,582.917L68.988,585.587L67.425,586.991L68.02,592.407L65.896,592.219L63.027,595.795L61.425,594.044L56.656,595.274L56.284,593.336L52.67,590.914L54.532,589.797L53.154,586.332L55.054,585.401L55.24,582.084L57.066,582.308L60.419,579.514Z" style="fill:rgb(55,56,55);fill-rule:nonzero;"/>
        </g>
        <g transform="matrix(1.99969,9.86076e-32,1.97215e-31,1.99969,7.7645,-623.809)">
            <g opacity="0.5">
                <path d="M95.804,532.87L96.546,536.326L91.296,538.576L86.82,536.566L95.804,532.87Z" style="fill:rgb(23,24,23);fill-rule:nonzero;"/>
            </g>
        </g>
        <g transform="matrix(1.99969,9.86076e-32,1.97215e-31,1.99969,7.7645,-623.809)">
            <path d="M99.19,537.41L95.859,537.493L94.441,532.076L100.774,531.993L99.19,537.41Z" style="fill:rgb(206,173,128);fill-rule:nonzero;"/>
        </g>
        <g transform="matrix(1.99969,9.86076e-32,1.97215e-31,1.99969,7.7645,-623.809)">
            <path d="M124.155,570.728L126.06,573.124L114.234,585.012L111.568,583.006L124.155,570.728Z" style="fill:rgb(228,226,220);fill-rule:nonzero;"/>
        </g>
        <g transform="matrix(1.99969,9.86076e-32,1.97215e-31,1.99969,7.7645,-623.809)">
            <path d="M106.655,588.229L108.56,590.625L96.734,602.512L94.068,600.506L106.655,588.229Z" style="fill:rgb(228,226,220);fill-rule:nonzero;"/>
        </g>
        <g transform="matrix(1.99969,9.86076e-32,1.97215e-31,1.99969,7.7645,-623.809)">
            <path d="M97.974,570.728L96.069,573.124L107.895,585.012L110.561,583.006L97.974,570.728Z" style="fill:rgb(228,226,220);fill-rule:nonzero;"/>
        </g>
        <g transform="matrix(1.99969,9.86076e-32,1.97215e-31,1.99969,7.7645,-623.809)">
            <path d="M114.224,586.979L112.344,589.401L125.362,602.479L128.061,600.506L114.224,586.979Z" style="fill:rgb(228,226,220);fill-rule:nonzero;"/>
        </g>
        <g transform="matrix(1.99969,9.86076e-32,1.97215e-31,1.99969,7.7645,-623.809)">
            <path d="M90.945,588.602L91.293,585.56L108.06,585.517L108.527,588.821L90.945,588.602Z" style="fill:rgb(228,226,220);fill-rule:nonzero;"/>
        </g>
        <g transform="matrix(1.99969,9.86076e-32,1.97215e-31,1.99969,7.7645,-623.809)">
            <path d="M115.693,588.602L116.041,585.559L132.808,585.516L133.275,588.821L115.693,588.602Z" style="fill:rgb(228,226,220);fill-rule:nonzero;"/>
        </g>
        <g transform="matrix(1.99969,9.86076e-32,1.97215e-31,1.99969,7.7645,-623.809)">
            <path d="M109.459,607.864L112.5,607.503L112.543,590.019L109.24,589.533L109.459,607.864Z" style="fill:rgb(228,226,220);fill-rule:nonzero;"/>
        </g>
        <g transform="matrix(1.99969,9.86076e-32,1.97215e-31,1.99969,7.7645,-623.809)">
            <path d="M109.459,582.365L112.5,582.017L112.543,565.25L109.24,564.783L109.459,582.365Z" style="fill:rgb(228,226,220);fill-rule:nonzero;"/>
        </g>
        <g transform="matrix(1.99969,9.86076e-32,1.97215e-31,1.99969,7.7645,-623.809)">
            <path d="M23.106,579.327L18.106,586.077L23.481,594.077L31.606,587.077L23.106,579.327Z" style="fill:rgb(55,56,55);fill-rule:nonzero;"/>
        </g>
        <g transform="matrix(1.99969,9.86076e-32,1.97215e-31,1.99969,7.7645,-623.809)">
            <path d="M112.358,579.701L103.441,585.909L108.816,593.909L116.941,586.909L112.358,579.701Z" style="fill:rgb(55,56,55);fill-rule:nonzero;"/>
        </g>
        <g transform="matrix(1.99969,9.86076e-32,1.97215e-31,1.99969,7.7645,-623.809)">
            <path d="M23.91,585.615L48.366,557.986L50.894,560.279L26.589,587.636L23.91,585.615Z" style="fill:rgb(236,219,177);fill-rule:nonzero;"/>
        </g>
        <g transform="matrix(1.99969,9.86076e-32,1.97215e-31,1.99969,7.7645,-623.809)">
            <path d="M111.629,607.37C100.583,607.37 91.629,598.416 91.629,587.37C91.629,576.324 100.583,567.37 111.629,567.37C122.675,567.37 131.629,576.324 131.629,587.37C131.629,598.416 122.675,607.37 111.629,607.37M111.629,562.742C98.026,562.742 87,573.768 87,587.371C87,600.973 98.026,611.999 111.629,611.999C125.231,611.999 136.257,600.973 136.257,587.371C136.257,573.768 125.231,562.742 111.629,562.742" style="fill:rgb(55,56,55);fill-rule:nonzero;"/>
        </g>
        <g transform="matrix(1.99969,9.86076e-32,1.97215e-31,1.99969,7.7645,-623.809)">
            <path d="M107.907,586.932L86.819,536.567L89.985,535.286L110.833,585.26L107.907,586.932Z" style="fill:rgb(236,219,177);fill-rule:nonzero;"/>
        </g>
        <g transform="matrix(1.99969,9.86076e-32,1.97215e-31,1.99969,7.7645,-623.809)">
            <path d="M62.866,588.464L63.351,591.474L73.405,590.595L73.385,587.28L62.866,588.464Z" style="fill:rgb(228,226,220);fill-rule:nonzero;"/>
        </g>
        <g transform="matrix(1.99969,9.86076e-32,1.97215e-31,1.99969,7.7645,-623.809)">
            <path d="M73.486,585.076L72.819,590.742L83.99,590.242L85.323,583.909L73.486,585.076Z" style="fill:rgb(55,56,55);fill-rule:nonzero;"/>
        </g>
        <g transform="matrix(1.99969,9.86076e-32,1.97215e-31,1.99969,7.7645,-623.809)">
            <g opacity="0.5">
                <path d="M45.234,541.743L47.358,558.576L41.609,541.66L45.234,541.743Z" style="fill:rgb(23,24,23);fill-rule:nonzero;"/>
            </g>
        </g>
        <g transform="matrix(1.99969,9.86076e-32,1.97215e-31,1.99969,7.7645,-623.809)">
            <path d="M107.863,612L107.862,547.576L102.008,547.598L37.861,612L45.317,612L93.208,564.107L102.443,554.742L102.695,611.999L107.863,612Z" style="fill:rgb(124,112,91);fill-rule:nonzero;"/>
        </g>
    </g>
</svg>
